X:1
T:Strahspey  " "
M:C
L:1/8
Q:80
C:PM D.MacLeod,MBE/JHP
S:THE CAMERONIAN RANT
K:HP
e | \
{Gdc}d/2{e}G3/2{g}((3G{d}G{e}G){dc}d/2{e}G3/2{gBd}B/2g3/2 | \
{Gdc}d/2{e}G3/2{g}((3G{d}G{e}G){dc}d2{gef}e3/2d/2 | \
{gcd}c/2{e}A3/2{g}((3A{d}A{e}A){gcd}c/2{e}A3/2{gBd}B/2a3/2 |
{cd}c/2{e}A3/2{g}((3A{d}A{e}A){Gdc}d2{gBd}B/2g3/2 | \
{Gdc}d/2{e}G3/2{g}((3G{d}G{e}G){dc}d/2{e}G3/2{gBd}B/2g3/2 | \
{Gdc}d/2{e}G3/2{gBd}B/2{e}G3/2{dc}((3d/2f3/2{g}fed) |
{gcd}c/2{e}A3/2{g}((3A{d}A{e}A){gcd}c/2{e}A3/2{gBd}B/2{e}A3/2 | \
{gcd}c/2{e}A3/2{g}((3A{d}A{e}A){Gdc}d2{gcd}c/2{e}B3/2[ | \
{g}G3/2{d}B/2{gf}((3g3/2a/2gfe){Gdc}d3/2B/2 |
{g}G3/2{d}B/2{gf}((3g3/2a/2gfe){Gdc}d3/2B/2 | \
{gAGAG}A2{ag}a3/2g/2a3/2A/2{gef}e3/2c/2 | \
{gAGAG}A2{ag}a3/2g/2a3/2A/2{gef}e3/2d/2 |
{g}G3/2{d}B/2{gf}((3g3/2a/2gfe){Gdc}d3/2B/2 | \
{g}((3GAB){gf}g3/2d/2{gBd}B2{e}G3/2g/2 | \
{a}((3fga){ef}((3e3/2g/2{a}fga){ef}e3/2f/2 |
{gf}g3/2e/2{ag}a3/2e/2{gf}((3g/2a3/2gfe)[ | \
{Gdc}d/2{e}G3/2{gf}g/2{a}G3/2{dc}d/2{e}G3/2{g}((3G{d}G{e}G) | \
{dc}d/2{e}G3/2{g}((3G{d}G{e}G){dc}d2{gef}e3/2d/2 |
{gcd}c/2{e}A3/2{ag}a3/2e/2{gcd}c/2{e}A3/2{g}((3A{d}A{e}A) | \
{gcd}c/2{e}A3/2{g}((3A{d}A{e}A){Gdc}d2{gBd}B/2g3/2 | \
{Gdc}d/2{e}G3/2{gf}g/2{a}G3/2{dc}d/2{e}G3/2{g}((3G{d}G{e}G) |
{dc}d/2{e}G3/2{g}((3G{d}G{e}G){dc}((3d/2f3/2{g}fed) | \
{gcd}c/2{e}A3/2{Gdc}d/2{e}B3/2{gcd}c/2{e}A3/2{g}((3A{d}A{e}A) | \
{gcd}c/2{e}A3/2{g}((3A{d}A{e}A){Gdc}d2{gcd}c/2{e}B3/2|]
{g}G3/2{d}B/2{gf}((3g3/2a/2gfe){gf}g3/2B/2 | \
{g}G3/2{d}B/2{gf}((3g3/2a/2gfe){gf}g3/2B/2 | \
{gAGAG}A/2a3/2{g}a3/2A/2((3agf){gef}e3/2c/2 |
{gAGAG}A/2a3/2{g}a3/2A/2((3agf){gef}e3/2d/2 | \
{g}G3/2{d}B/2{gf}((3g3/2a/2gfe){gf}g3/2d/2 | \
{gef}((3e3/2g/2{a}fed){gBd}B2{e}G3/2g/2 |
{a}((3fga){ef}((3e3/2g/2{a}fga){ef}e3/2f/2 | \
{gf}g3/2e/2{ag}a3/2e/2{gf}((3g/2a3/2gfe)|]
